svgs/regular/oil-well.svg

<svg xmlns="http://www.w3.org/2000/svg" viewBox="0 0 576 512"><!--! Font Awesome Pro 6.2.0 by @fontawesome - https://fontawesome.com License - https://fontawesome.com/license (Commercial License) Copyright 2022 Fonticons, Inc. --><path d="M430.4 4.707C473-6.729 516.9 18.6 528.3 61.28L569.8 215.8C581.2 258.5 555.9 302.4 513.2 313.8L497.7 317.9C480.7 322.5 463.1 312.4 458.5 295.3L431.3 193.6L95.1 280.5V464H140.1L198 294.3L253.7 279.9L229.1 352H314.9L287.3 271.2L333.9 259.1L403.9 464H552C565.3 464 576 474.7 576 488C576 501.3 565.3 512 552 512H24C10.75 512 0 501.3 0 488C0 474.7 10.75 464 24 464H48V184C48 170.7 58.75 160 72 160C85.25 160 96 170.7 96 184V230.9L231.7 195.7L249.3 144.2C252.6 134.5 261.7 128 271.1 128C282.3 128 291.4 134.5 294.7 144.2L305.7 176.5L418.9 147.2L392.3 48.04C387.7 30.97 397.8 13.42 414.9 8.848L430.4 4.707zM442.8 51.07L500.8 267.4C517.8 262.9 527.1 245.3 523.4 228.2L481.1 73.7C477.4 56.63 459.9 46.5 442.8 51.07V51.07zM353.2 464L331.3 400H212.7L190.8 464H353.2z"/></svg>

<svg xmlns="http://www.w3.org/2000/svg" viewBox="0 0 576 512"><!--! Font Awesome Pro 6.3.0 by @fontawesome - https://fontawesome.com License - https://fontawesome.com/license (Commercial License) Copyright 2023 Fonticons, Inc. --><path d="M482 73.7c-4.6-17.1-22.1-27.2-39.2-22.6l58 216.4c17.1-4.6 27.2-22.1 22.6-39.2L482 73.7zm-51.6-69c42.7-11.4 86.5 13.9 98 56.6l41.4 154.5c11.4 42.7-13.9 86.5-56.6 98l-15.5 4.1c-17.1 4.6-34.6-5.6-39.2-22.6L431.3 193.6 96 280.5V464h44.1L198 294.3l55.6-14.4L229.1 352h85.9l-27.6-80.8 46.6-12.1 70 204.9H552c13.3 0 24 10.7 24 24s-10.7 24-24 24H24c-13.3 0-24-10.7-24-24s10.7-24 24-24H48V184c0-13.3 10.7-24 24-24s24 10.7 24 24v46.9l135.7-35.2 17.6-51.5c3.3-9.7 12.4-16.2 22.7-16.2s19.4 6.5 22.7 16.2l11 32.3 113.1-29.3L392.3 48c-4.6-17.1 5.6-34.6 22.6-39.2l15.5-4.1zM353.2 464l-21.9-64H212.7l-21.9 64H353.2z"/></svg>
